X: 39622
T: Tempest, The
R: reel
M: 4/4
K: Cmajor
|:d2 cA GE E2|GEcE dEcE|d2 cA GEE^F|GEcE ED D2|
d2 cA GEE^F|GEcE dEcE|D2 (3EFG ABcA|GEcE ED D2:|
|:d3e cAGc|AdcA GE E2|d3e cde=f|edcA d3e|
=f3d edcA|(3AcA Gc AcGE|D2 (3EFG AGcA|GEcE ED D2:|

